fonts/times-new-roman/bubble/glyphs/05_hey.svg

<?xml version="1.0" encoding="utf-8"?>
<svg version="1.1" viewBox="-10 0 975 2048" xmlns="http://www.w3.org/2000/svg">
  <path fill="none" stroke="black" stroke-width="40" d="M 707 1663 L 691 1642 C 708.333 1612.667 717 1577.667 717 1537 C 717 1497.667 714.333 1438.667 709 1360 C 703.667 1280.667 701 1221.333 701 1182 C 701 1021.333 716.55 868.957 754.855 806.723 L 229 802 C 128.333 802 78 760 78 676 C 78 610.667 98.333 556 139 512 L 166 512 C 176.667 558.667 208 582 260 582 L 748 582 C 790 582 822 589 844 603 C 866 617 877 649.667 877 701 L 877 750 C 877 774.667 864.833 806.833 840.5 846.5 C 816.167 886.167 804 947.667 804 1031 C 804 1079 811.667 1151 827 1247 C 842.333 1343 850 1415 850 1463 C 850 1581.667 802.333 1648.333 707 1663 Z M 102 1664 L 88 1642 C 105.333 1624 114 1599.667 114 1569 C 114 1548.333 113 1517 111 1475 C 109 1433 108 1401.667 108 1381 C 108 1241.667 158 1172 258 1172 C 271.333 1172 282.667 1174.667 292 1180 L 292 1207 C 260 1227.667 244 1271.333 244 1338 C 244 1360 245.333 1392.667 248 1436 C 250.667 1479.333 252 1511.667 252 1533 C 252 1614.333 202 1658 102 1664 Z"/>
</svg>

<?xml version="1.0" standalone="no"?>
<!DOCTYPE svg PUBLIC "-//W3C//DTD SVG 1.1//EN" "http://www.w3.org/Graphics/SVG/1.1/DTD/svg11.dtd" >
<svg xmlns="http://www.w3.org/2000/svg" xmlns:xlink="http://www.w3.org/1999/xlink" version="1.1" viewBox="-10 0 975 2048">
   <path fill="none" stroke="black" stroke-width="40"
d="M707 1663l-16 -21q26 -44 26 -105q0 -59 -8 -177q-8 -119 -8 -178q0 -241 117 -380h-589q-151 0 -151 -126q0 -98 61 -164h27q16 70 94 70h488q63 0 96 21t33 98v49q0 37 -36.5 96.5t-36.5 184.5q0 72 23 216t23 216q0 178 -143 200zM102 1664l-14 -22q26 -27 26 -73
q0 -31 -3 -94t-3 -94q0 -209 150 -209q20 0 34 8v27q-48 31 -48 131q0 33 4 98t4 97q0 122 -150 131z" />
</svg>
